X:1
T:Title
%%score { ( 1 3 4 ) | ( 2 5 ) }
L:1/8
M:4/4
K:Bb
V:1 treble nm="Grand Piano"
V:3 treble 
V:4 treble 
V:2 bass 
V:5 bass 
V:1
 z4 z2[Q:1/4=96] [B,D][CE] | [DF]2 [DF][DF] [DF][DF][DB][FA] |[M:3/4] [EG][GB] [GB][EG] [DF]2 | %3
[M:1/4] [B,D][CE] |[M:4/4] [DF]2 [DF][DF] [DB][Fd][Fd][FB] | c6 Bc | d2 dd e[Fd][Fc][FB] | %7
 [EG][GB][GB][GB] [GB]2 [FA]G | F2 BB AAcc |[M:3/4] [B,DB]6 |[M:1/4] (3BBc |[M:4/4] d6 z2 | %12
 [B,EG]2 [B,GB]>[B,GB] [DFB]2 (3AAB | c6 z2 | [Fd]2 [Fd]>[Ge] [Fd]2 [DB][FA] | %15
 G2 GG [GB]2 [FA][EG] |[M:3/4] [DF]2 [DF]>[DF] [DF]2 |[M:1/4] (3[DB][FB]c | %18
[M:4/4] d2 (3[Ge][Ge][Ge] d2 c>c |[M:7/8] B-B-B- B- B3 |] %20
V:2
 z4 z2 [B,,F,][B,,F,] | [B,,B,]2 [B,,B,][B,,B,] [B,,B,][B,,B,][B,,B,][D,B,] | %2
[M:3/4] [E,B,][E,B,] [E,B,][E,B,] [B,,B,]2 |[M:1/4] [B,,F,][B,,F,] | %4
[M:4/4] [B,,B,]2 [B,,B,][B,,B,] [B,,B,][B,,B,][B,,B,][D,B,] | [F,A,F]6 [B,D][B,E] | %6
 [B,F]2 [B,F][B,F] [B,G][K:bass][B,,B,][C,A,][D,B,] | %7
 [E,B,][E,B,][E,B,][E,B,] [E,B,]2 [E,B,][E,B,E] | %8
 [F,B,D]2 [F,DF][F,DF] [F,CF][F,CF][F,A,E][F,A,E] |[M:3/4] B,,6 |[M:1/4][K:treble] (3DDE | %11
[M:4/4] F2[K:bass] (3[B,,B,][D,B,][F,B,] B,2 B,,B,, | E,2 E,>E, B,,2 (3CCD | %13
 E2 (3[F,A,][F,A,][F,A,] [F,A,]E,D,[C,A,] | [B,,B,]2 [B,,B,]>[B,,B,] [B,,B,]2 [B,,B,][D,B,] | %15
 [E,B,E]2 [E,B,E][E,B,E] [E,B,]2 [E,B,][E,B,] |[M:3/4] [B,,B,]2 [B,,B,]>[B,,B,] [B,,B,]2 | %17
[M:1/4] (3[B,,B,][D,B,][K:treble][F,A,F] | %18
[M:4/4] [B,F]2[K:bass] (3[E,B,][E,B,][E,B,] [F,B,F]2 [F,A,E]>[F,A,E] |[M:7/8] z2 E/DC/ B,3 |] %20
V:3
 x8 | x8 |[M:3/4] x6 |[M:1/4] x2 |[M:4/4] x8 | x8 | x8 | x8 | x8 |[M:3/4] x6 |[M:1/4] x2 | %11
[M:4/4] z2 (3FFF F2 [B,DF][B,DF] | x8 | z2 (3FFF z C[B,FB][Fc] | x8 | x8 |[M:3/4] x6 |[M:1/4] x2 | %18
[M:4/4] x8 |[M:7/8] [CD]2 G/FE/ D3 |] %20
V:4
 x8 | x8 |[M:3/4] x6 |[M:1/4] x2 |[M:4/4] x8 | x8 | x8 | x8 | x8 |[M:3/4] x6 |[M:1/4] x2 | %11
[M:4/4] x8 | x8 | z4 F2 z2 | x8 | x8 |[M:3/4] x6 |[M:1/4] x2 |[M:4/4] x8 |[M:7/8] x7 |] %20
V:5
 x8 | x8 |[M:3/4] x6 |[M:1/4] x2 |[M:4/4] x8 | x8 | x5[K:bass] x3 | x8 | x8 |[M:3/4] x6 | %10
[M:1/4][K:treble] x2 |[M:4/4] x2[K:bass] x6 | x8 | x8 | x8 | x8 |[M:3/4] x6 | %17
[M:1/4] x4/3[K:treble] x2/3 |[M:4/4] x2[K:bass] x6 |[M:7/8] B,,-B,,-B,,- B,,- B,,3 |] %20

